X:141
T: Magelhan (Rolling home)
N: D0225
O: Europa, Mitteleuropa, Deutschland, Schleswig - Holstein, Kiel -
N: moduliert in die Dominanttonart; mehrstimmig notiert
N: Inzipit = Variante zum Lied
R: Staende - Lied, Seemannslied
M: 3/4
L: 1/16
K: Bb
F2D2E2 | F3FF2F2=E2F2 | G2F2-F2
F2D2F2 | B4d4c2B2 | G6
G2A2B2 | c6B2A2E2 | G2F2-F2
F2F2B2 | A6F2G2A2 | B8
D3E | F8D3F | B8
A3B | c6B2A3G | F8
A3B | c6B2A3E | G2F2-F2z2
F2B2 | A6F2G3A | B6

@@@ Tune index: 2663
